packages/icons/svg/Project_Inspiration_64px.svg

<svg xmlns="http://www.w3.org/2000/svg" viewBox="0 0 64 64"><path d="M49 5H15a2 2 0 00-2 2v50a2 2 0 002 2h34a2 2 0 002-2V7a2 2 0 00-2-2zm-1 3v33.5h-.88l-7.45-14.95a1 1 0 00-1.79 0l-4.09 8.21-8.08-16.21a1 1 0 00-.87-.55 1.06 1.06 0 00-.9.52L16 32.86V8zM16 36.91a1.49 1.49 0 00.12-.14l8.65-15.62 8.13 16.3a1 1 0 001.79 0l4.09-8.21 6.11 12.26H16zM16 56V44.5h32V56z"/><path d="M40 21.5a5.5 5.5 0 10-5.5-5.5 5.51 5.51 0 005.5 5.5zm0-9a3.5 3.5 0 11-3.5 3.5 3.5 3.5 0 013.5-3.5z"/></svg>

<svg xmlns="http://www.w3.org/2000/svg" viewBox="0 0 64 64"><defs></defs><g id="Icon"><path  d="M49,5H15a2,2,0,0,0-2,2V57a2,2,0,0,0,2,2H49a2,2,0,0,0,2-2V7A2,2,0,0,0,49,5ZM48,8V41.5h-.88L39.67,26.55a1,1,0,0,0-1.79,0l-4.09,8.21L25.71,18.55a1,1,0,0,0-.87-.55,1.06,1.06,0,0,0-.9.52L16,32.86V8ZM16,36.91a1.49,1.49,0,0,0,.12-.14l8.65-15.62,8.13,16.3a1,1,0,0,0,1.79,0l4.09-8.21L44.89,41.5H16ZM16,56V44.5H48V56Z"/><path  d="M40,21.5A5.5,5.5,0,1,0,34.5,16,5.51,5.51,0,0,0,40,21.5Zm0-9A3.5,3.5,0,1,1,36.5,16,3.5,3.5,0,0,1,40,12.5Z"/></g></svg>
